X:1
T:Super flumina Babylonis
T:Lassus
T:Super flumina Babylonis
T:Copyright © 2015 by CPDL.  This edition can be fully distributed, duplicated, performed, and recorded. 
T:Copyright © 2015 by CPDL.  This edition can be fully distributed, duplicated, performed, and recorded. 
T:Copyright © 2015 by CPDL.  This edition can be fully distributed, duplicated, performed, and recorded. 
T:Copyright © 2015 by CPDL.  This edition can be fully distributed, duplicated, performed, and recorded. 
T:Copyright © 2015 by CPDL.  This edition can be fully distributed, duplicated, performed, and recorded. 
C:Lassus
Z:Copyright © 2015 by CPDL.  This edition can be fully distributed, duplicated, performed, and recorded.
Z:
%%score [ 1 2 3 4 ]
L:1/8
Q:1/2=84
M:4/2
K:G
V:1 treble nm="Soprano" snm="S."
V:2 treble nm="Alto" snm="A."
V:3 treble-8 transpose=-12 nm="Tenor" snm="T."
V:4 bass nm="Bass" snm="B."
V:1
"^Psalm 137" z16 | z8 B8- | B4 G4 A4 B4 | (E2 F2 G2 A2 B4) G4- | G4 G4 (c8 | B8) c6 BA | %6
w: |Su-|* per flu- mi-|na _ _ _ _ Ba-|* by- lo-|* nis, _ _|
 G6 F2 E4 B4 | G4 A8 G4 | c4 c4 B4 A4- | A4 G4 =F4 E4 | c6 BA G2 A2 B4 | B8 A4 D4 | A8 B4 d4 | %13
w: _ _ _ su-|per flu- mi-|na Ba- by- lo-|* nis, Ba- by-|lo- * * * * *|nis, Ba- by-|lo- nis, su-|
 B4 G4 A4 G4- | G4 (G6 A2 B4) | A4 c6 B2 A4- | A2 ^GF G4 A4 A4- | A4 A4 A4 A4 | d8 z4 d4- | %19
w: per flu- mi- na|_ Ba- * *|by- lo- * *|* * * * nis, il-|* lic se- di-|mus, il-|
 d4 d4 d4 d4 | G16 | z4 c8 B4- | B2 A2 G6 F2 E2 F2 | G4 E8 ^D4 | ^D8 z8 | E12 E4 | E4 E4 F8 | %27
w: * lic se- di-|mus,|et _|_ _ _ _ _ _|* fle- vi-|mus,|il- lic|se- di- mus,|
 F12 F4 | F4 F4 G8- | G8 E8 | A12 ^G4 | ^G8 B8 | A4 A4 c4 B4- | (B2 A2 G8) F4- | (F2 G2 A8) G4 | %35
w: il- lic|se- di- mus,|_ et|fle- vi-|mus; dum|re- cor- da- re-|* * * mur|_ _ _ tu-|
 F4 G6 F2 E4- | E2 ^D^C D4 E8 | G12 F4 | F4 A4 G8 | F4 G6 F2 E4- | E2 ^D^C D4 E8 | E16 | E16 |] %43
w: i, Si- * *|* * * * on,|dum re-|cor- da- re-|mur tu- * *|* * * * i,|Si-|on.|
V:2
 z16 | z16 | z16 | z16 | E12 C4 | D4 E4 (A,2 B,2 C2 D2 | E4) D4 G4 E4 | E8 z8 | E12 C4 | %9
w: ||||Su- per|flu- mi- na _ _ _|_ Ba- by- lo-|nis,|Su- per|
 D4 E4 A,2 B,2 C2 D2 | E6 DC B,4 G4- | (G2 F2 G4) F4 G4- | (G2 FE F4) G4 D4- | (D2 B,2 E4) D8 | %14
w: flu- mi- na _ _ _|_ _ _ _ Ba-|* * * by- lo-|* * * * nis, su-|* * * per|
 E4 E4 D4 G4 | =F4 (E6 DC D4) | E16 | ^F12 F4 | F4 F4 F8 | G12 D4 | D4 D4 E8- | E8 G6 FE | %22
w: flu- mi- na Ba-|by- lo- * * *|nis,|il- lic|se- di- mus,|il- lic|se- di- mus,|_ et _ _|
 D2 C2 D4 E2 D2 C2 B,A, | G,4 A,4 B,8 | z4 B,8 B,4 | B,4 B,4 (B,8 | ^C8) D8- | D4 D4 D4 D4 | %28
w: _ _ _ fle- * * * *|* vi- mus,|il- lic|se- di- mus,|_ il-|* lic se- di-|
 D4 A,4 B,4 E4 | D8 z4 A,4 | C4 D4 E8 | z4 E8 D4 | D4 =F4 E8 | B,8 z4 D4- | D4 C4 E4 E4 | %35
w: mus, et fle- vi-|mus, et|fle- vi- mus;|dum re-|cor- da- re-|mur, dum|_ re- cor- da-|
 D8 (G,6 A,2 | B,4) B,4 C4 C4- | C4 B,4 z4 D4- | D4 C4 E4 E4 | D8 (G,6 A,2 | B,8) C4 C4 | C16 | %42
w: re- mur _|_ tu- i, Si-|* on, dum|_ re- cor- da-|re~- mur _|_ tu- i,|Si-|
 B,16 |] %43
w: on.|
V:3
 B12 G4 | A4 B4 E2 F2 G2 A2 | B2 G2 c6 BA G4 | A4 (E2 F2 G2 A2 B4) | (c6 B2 A8) | G8 z8 | %6
w: Su- per|flu- mi- na _ _ _|_ _ _ _ _ _|Ba- by- * * * *|lo- * *|nis,|
 z4 B8 G4 | B4 c4 B8 | A8 G4 A4- | A2 B2 c2 B2 d4 G4 | z16 | d12 B4 | c4 d4 (G2 A2 B2 c2 | %13
w: Su- per|flu- mi- na|Ba- by- lo-|* * * * * nis,||su- per|flu- mi- na _ _ _|
 d4) c8 B4 | c8 B4 d4- | d4 G4 (A8 | B8) ^c8 | d12 d4 | A4 A4 A8 | B12 B4 | B4 B4 (c6 BA | %21
w: _ Ba- by-|lo- nis, Ba-|* by- lo-|* nis,|il- lic|se- di- mus,|il- lic|se- di- mus, _ _|
 G4) G4 d6 c2 | B6 A2 G6 F2 | E4 E4 F8- | F8 ^G8- | G4 ^G4 G4 G4 | A4 A8 A4 | A4 A4 A8- | %28
w: _ et fle- *||* vi- mus,|_ il-|* lic se- di-|mus, il- lic|se- di- mus,|
 A4 d8 c4- | c2 BA B4 c6 B2 | A6 B2 c4 B4 | B8 z8 | z16 | z8 B8 | A4 A4 c4 B4- | %35
w: _ et _|_ _ _ _ fle- *|* * * vi-|mus;||dum|re- cor- da- re-|
 (B2 A2 G2 F2 E4) E4 | F4 F4 A8 | E8 B8 | A4 A4 c4 B4- | (B2 A2 G2 F2 E8) | F8 A8- | A4 A4 A8 | %42
w: * * * * * mur|tu- i, Si-|on, dum|re- cor- da- re-||mur tu-|* i, Si-|
 ^G16 |] %43
w: on.|
V:4
 z16 | z16 | z16 | z16 | z16 | z16 | z8 E,8- | E,4 C,4 D,4 E,4 | (A,,2 B,,2 C,2 D,2 E,4) =F,4- | %9
w: ||||||Su-|* per flu- mi-|na _ _ _ _ Ba-|
 F,4 E,4 D,4 C,2 B,,2 | A,,2 B,,2 C,2 D,2 E,8 | B,,8 z8 | z8 z4 G,4- | G,4 E,4 F,4 G,4 | %14
w: * by- lo- * *||nis,|su-|* per flu- mi-|
 (C,2 D,2 E,2 F,2 G,8) | D,4 E,4 (=F,8 | E,8) A,8 | D,12 D,4 | D,4 D,4 D,8 | G,12 G,4 | %20
w: na _ _ _ _|Ba- by- lo-|* nis,|il- lic|se- di- mus,|il- lic|
 G,4 G,4 C,8- | C,8 G,,8- | G,,8 C,8- | C,4 C,4 B,,8- | B,,8 E,8- | E,4 E,4 E,4 E,4 | A,,8 D,8- | %27
w: se- di- mus,|_ et|_ fle-|* vi- mus,|_ il-|* lic se- di-|mus, il-|
 D,4 D,4 D,4 D,4 | D,8 G,8- | G,8 (A,6 G,2 | =F,4) F,4 E,8- | E,8 z8 | z16 | z4 E,8 D,4 | %34
w: * lic se- di-|mus, et|_ fle- *|* vi- mus;|_||dum re-|
 D,4 =F,4 E,8 | B,,8 C,4 C,4 | B,,8 A,,8 | z4 E,8 D,4 | D,4 =F,4 E,8 | B,,8 C,8 | B,,8 A,,8- | %41
w: cor- da- re-|mur tu- i,|Si- on,|dum re-|cor- da- re-|mur tu-|i, Si-|
 A,,16 | E,16 |] %43
w: |on.|

